source/img/logo.svg

<svg width="38" height="38" viewBox="0 0 38 38" fill="none" xmlns="http://www.w3.org/2000/svg">
<path d="M24.4335 10.1332C25.2581 10.1332 25.9547 10.6645 26.2169 11.3998H32.7833C33.0455 10.6645 33.7422 10.1332 34.5668 10.1332C35.6143 10.1332 36.4668 10.9856 36.4668 12.0331C36.4668 13.0807 35.6143 13.9331 34.5668 13.9331C33.7422 13.9331 33.0455 13.4018 32.7833 12.6665H26.2163C25.9541 13.4018 25.2574 13.9331 24.4328 13.9331C23.3853 13.9331 22.5328 13.0807 22.5328 12.0331C22.5328 10.9856 23.3859 10.1332 24.4335 10.1332ZM34.5668 12.6665C34.9158 12.6665 35.2001 12.3827 35.2001 12.0331C35.2001 11.6836 34.9158 11.3998 34.5668 11.3998C34.2178 11.3998 33.9335 11.6836 33.9335 12.0331C33.9335 12.3827 34.2178 12.6665 34.5668 12.6665ZM24.4335 12.6665C24.7824 12.6665 25.0668 12.3827 25.0668 12.0331C25.0668 11.6836 24.7824 11.3998 24.4335 11.3998C24.0845 11.3998 23.8001 11.6836 23.8001 12.0331C23.8001 12.3827 24.0845 12.6665 24.4335 12.6665Z" fill="#00B2FF"/>
<path d="M18.3667 14.0497V10.1332C18.3667 9.96475 18.4332 9.80388 18.5523 9.68545L21.0856 7.15216C21.2041 7.0331 21.3656 6.9666 21.5334 6.9666H23.5499C23.8121 6.23131 24.5088 5.69995 25.3334 5.69995C26.3809 5.69995 27.2334 6.5524 27.2334 7.59992C27.2334 8.64744 26.3809 9.49989 25.3334 9.49989C24.5088 9.49989 23.8121 8.96853 23.5499 8.23324H21.7956L19.6334 10.3954V14.0497C20.3687 14.3119 20.9001 15.0085 20.9001 15.8331C20.9001 16.8806 20.0476 17.7331 19.0001 17.7331C17.9525 17.7331 17.1001 16.8806 17.1001 15.8331C17.1001 15.0085 17.6314 14.3119 18.3667 14.0497ZM25.3334 8.23324C25.6824 8.23324 25.9667 7.94951 25.9667 7.59992C25.9667 7.25033 25.6824 6.9666 25.3334 6.9666C24.9844 6.9666 24.7001 7.25033 24.7001 7.59992C24.7001 7.94951 24.9844 8.23324 25.3334 8.23324ZM19.0001 16.4664C19.349 16.4664 19.6334 16.1827 19.6334 15.8331C19.6334 15.4835 19.349 15.1998 19.0001 15.1998C18.6511 15.1998 18.3667 15.4835 18.3667 15.8331C18.3667 16.1827 18.6511 16.4664 19.0001 16.4664Z" fill="#00B2FF"/>
<path d="M6.96667 16.4664C7.25927 16.4664 7.53287 16.538 7.7805 16.657L8.86667 15.5709V9.49984C8.86667 9.33138 8.93317 9.17051 9.05223 9.05208L15.3906 2.71379C15.2716 2.46616 15.2 2.19256 15.2 1.89997C15.2 0.852452 16.0525 0 17.1 0C18.1475 0 19 0.852452 19 1.89997C19 2.94748 18.1475 3.79994 17.1 3.79994C16.8074 3.79994 16.5338 3.72837 16.2862 3.60931L10.1333 9.76204V15.8331C10.1333 16.0015 10.0668 16.1624 9.94777 16.2808L8.67603 17.5525C8.7951 17.8002 8.86667 18.0738 8.86667 18.3664C8.86667 19.4139 8.0142 20.2663 6.96667 20.2663C5.91913 20.2663 5.06667 19.4139 5.06667 18.3664C5.06667 17.3188 5.91913 16.4664 6.96667 16.4664ZM17.1 2.53329C17.449 2.53329 17.7333 2.24956 17.7333 1.89997C17.7333 1.55037 17.449 1.26665 17.1 1.26665C16.751 1.26665 16.4667 1.55037 16.4667 1.89997C16.4667 2.24956 16.751 2.53329 17.1 2.53329ZM6.96667 18.9997C7.31563 18.9997 7.6 18.716 7.6 18.3664C7.6 18.0168 7.31563 17.733 6.96667 17.733C6.6177 17.733 6.33333 18.0168 6.33333 18.3664C6.33333 18.716 6.6177 18.9997 6.96667 18.9997Z" fill="#00B2FF"/>
<path d="M1.26696 8.98305V6.33323C1.26696 6.16476 1.33346 6.0039 1.45253 5.88547L5.88586 1.45221C6.00429 1.33314 6.16579 1.26665 6.33363 1.26665H9.61683C9.87903 0.531358 10.5757 0 11.4003 0C12.4478 0 13.3003 0.852452 13.3003 1.89997C13.3003 2.94748 12.4478 3.79994 11.4003 3.79994C10.5757 3.79994 9.87903 3.26858 9.61683 2.53329H6.59583L2.53363 6.59542V8.98305C3.26893 9.24525 3.80029 9.9419 3.80029 10.7665C3.80029 11.814 2.94783 12.6665 1.90029 12.6665C0.852759 12.6665 0.000292778 11.814 0.000292778 10.7665C0.000292778 9.9419 0.53166 9.24525 1.26696 8.98305ZM11.4003 2.53329C11.7493 2.53329 12.0336 2.24956 12.0336 1.89997C12.0336 1.55037 11.7493 1.26665 11.4003 1.26665C11.0513 1.26665 10.767 1.55037 10.767 1.89997C10.767 2.24956 11.0513 2.53329 11.4003 2.53329ZM1.90029 11.3998C2.24926 11.3998 2.53363 11.1161 2.53363 10.7665C2.53363 10.4169 2.24926 10.1332 1.90029 10.1332C1.55133 10.1332 1.26696 10.4169 1.26696 10.7665C1.26696 11.1161 1.55133 11.3998 1.90029 11.3998Z" fill="#00B2FF"/>
<path d="M10.133 34.3166V25.2164C9.39833 24.9542 8.86696 24.2575 8.86696 23.4329C8.86696 22.3854 9.71943 21.533 10.767 21.533C11.5916 21.533 12.2882 22.0643 12.5504 22.7996H19.1168C19.379 22.0643 20.0757 21.533 20.9003 21.533C21.7249 21.533 22.4216 22.0643 22.6838 22.7996H26.3381L28.6909 20.4468C28.5719 20.1992 28.5003 19.9256 28.5003 19.633C28.5003 18.5855 29.3528 17.733 30.4003 17.733C31.4478 17.733 32.3003 18.5855 32.3003 19.633C32.3003 20.6805 31.4478 21.533 30.4003 21.533C30.1077 21.533 29.8341 21.4614 29.5865 21.3423L27.0481 23.8807C26.9296 23.9998 26.7681 24.0663 26.6003 24.0663H22.6838C22.4216 24.8015 21.7249 25.3329 20.9003 25.3329C20.0757 25.3329 19.379 24.8015 19.1168 24.0663H12.5498C12.3585 24.6027 11.9361 25.0251 11.3997 25.2164V34.3166C12.135 34.5788 12.6663 35.2754 12.6663 36.1C12.6663 37.1475 11.8139 38 10.7663 38C9.71879 38 8.86633 37.1475 8.86633 36.1C8.86633 35.2754 9.39769 34.5788 10.133 34.3166ZM30.4003 20.2663C30.7493 20.2663 31.0336 19.9826 31.0336 19.633C31.0336 19.2834 30.7493 18.9997 30.4003 18.9997C30.0513 18.9997 29.767 19.2834 29.767 19.633C29.767 19.9826 30.0513 20.2663 30.4003 20.2663ZM20.9003 24.0663C21.2493 24.0663 21.5336 23.7825 21.5336 23.4329C21.5336 23.0833 21.2493 22.7996 20.9003 22.7996C20.5513 22.7996 20.267 23.0833 20.267 23.4329C20.267 23.7825 20.5513 24.0663 20.9003 24.0663ZM10.767 36.7327C11.1159 36.7327 11.4003 36.449 11.4003 36.0994C11.4003 35.7498 11.1159 35.4661 10.767 35.4661C10.418 35.4661 10.1336 35.7498 10.1336 36.0994C10.1336 36.449 10.418 36.7327 10.767 36.7327ZM10.767 24.0663C11.1159 24.0663 11.4003 23.7825 11.4003 23.4329C11.4003 23.0833 11.1159 22.7996 10.767 22.7996C10.418 22.7996 10.1336 23.0833 10.1336 23.4329C10.1336 23.7825 10.418 24.0663 10.767 24.0663Z" fill="#00B2FF"/>
<path d="M13.2998 12.783V10.7665C13.2998 10.598 13.3663 10.4372 13.4853 10.3187L21.0904 2.71379C20.9713 2.46616 20.8998 2.19256 20.8998 1.89997C20.8998 0.852452 21.7522 0 22.7998 0C23.6244 0 24.321 0.531358 24.5832 1.26665H27.2331C27.5827 1.26665 27.8664 1.54974 27.8664 1.89997V3.53774L30.2193 5.89053C30.4669 5.77147 30.7405 5.6999 31.0331 5.6999C32.0806 5.6999 32.9331 6.55236 32.9331 7.59987C32.9331 8.64739 32.0806 9.49984 31.0331 9.49984C29.9856 9.49984 29.1331 8.64739 29.1331 7.59987C29.1331 7.30728 29.2047 7.03368 29.3237 6.78605L26.7853 4.2477C26.6663 4.12926 26.5998 3.9684 26.5998 3.79994V2.53329H24.5832C24.321 3.26858 23.6244 3.79994 22.7998 3.79994C22.5072 3.79994 22.2336 3.72837 21.9859 3.60931L14.5664 11.0287V12.783C15.3017 13.0452 15.8331 13.7418 15.8331 14.5664C15.8331 15.6139 14.9806 16.4664 13.9331 16.4664C12.8856 16.4664 12.0331 15.6139 12.0331 14.5664C12.0331 13.7418 12.5645 13.0452 13.2998 12.783ZM31.0331 8.2332C31.3821 8.2332 31.6664 7.94947 31.6664 7.59987C31.6664 7.25028 31.3821 6.96655 31.0331 6.96655C30.6841 6.96655 30.3998 7.25028 30.3998 7.59987C30.3998 7.94947 30.6841 8.2332 31.0331 8.2332ZM22.7998 2.53329C23.1487 2.53329 23.4331 2.24956 23.4331 1.89997C23.4331 1.55037 23.1487 1.26665 22.7998 1.26665C22.4508 1.26665 22.1664 1.55037 22.1664 1.89997C22.1664 2.24956 22.4508 2.53329 22.7998 2.53329ZM13.9331 15.1997C14.2821 15.1997 14.5664 14.916 14.5664 14.5664C14.5664 14.2168 14.2821 13.9331 13.9331 13.9331C13.5841 13.9331 13.2998 14.2168 13.2998 14.5664C13.2998 14.916 13.5841 15.1997 13.9331 15.1997Z" fill="#00B2FF"/>
<path d="M15.2 17.733C16.0246 17.733 16.7213 18.2644 16.9835 18.9997H24.4378L28.0522 15.3853C28.1707 15.2662 28.3322 15.1997 28.5 15.1997H35.2045L36.7333 13.6709V8.49539L31.8472 3.60931C31.5995 3.72837 31.3259 3.79994 31.0333 3.79994C29.9858 3.79994 29.1333 2.94748 29.1333 1.89997C29.1333 0.852452 29.9858 0 31.0333 0C32.0809 0 32.9333 0.852452 32.9333 1.89997C32.9333 2.19256 32.8618 2.46616 32.7427 2.71379L37.8144 7.78544C37.9335 7.90387 38 8.06473 38 8.2332V13.9331C38 14.1016 37.9335 14.2624 37.8144 14.3809L35.9144 16.2808C35.796 16.3999 35.6345 16.4664 35.4667 16.4664H28.7622L25.1478 20.0808C25.0293 20.1998 24.8678 20.2663 24.7 20.2663H16.9835C16.7213 21.0016 16.0246 21.533 15.2 21.533C14.1525 21.533 13.3 20.6805 13.3 19.633C13.3 18.5855 14.1525 17.733 15.2 17.733ZM31.0333 1.26665C30.6844 1.26665 30.4 1.55037 30.4 1.89997C30.4 2.24956 30.6844 2.53329 31.0333 2.53329C31.3823 2.53329 31.6667 2.24956 31.6667 1.89997C31.6667 1.55037 31.3823 1.26665 31.0333 1.26665ZM15.2 20.2663C15.549 20.2663 15.8333 19.9826 15.8333 19.633C15.8333 19.2834 15.549 18.9997 15.2 18.9997C14.851 18.9997 14.5667 19.2834 14.5667 19.633C14.5667 19.9826 14.851 20.2663 15.2 20.2663Z" fill="#00B2FF"/>
<path d="M1.90052 15.1998C2.19312 15.1998 2.46672 15.2714 2.71435 15.3904L5.06719 13.0376V9.38336C4.33189 9.12116 3.80052 8.42451 3.80052 7.59992C3.80052 6.5524 4.65299 5.69995 5.70052 5.69995C6.74805 5.69995 7.60052 6.5524 7.60052 7.59992C7.60052 8.42451 7.06915 9.12116 6.33385 9.38336V13.2998C6.33385 13.4683 6.26735 13.6292 6.14829 13.7476L3.60989 16.2859C3.72896 16.5336 3.80052 16.8072 3.80052 17.0998C3.80052 17.9243 3.26915 18.621 2.53385 18.8832V19.3709L7.41495 24.2519C7.53402 24.3703 7.60052 24.5312 7.60052 24.6996V25.4495C8.33582 25.7117 8.86719 26.4083 8.86719 27.2329C8.86719 28.0575 8.33582 28.7542 7.60052 29.0164V30.5167C8.33582 30.7789 8.86719 31.4756 8.86719 32.3001C8.86719 33.3477 8.01472 34.2001 6.96719 34.2001C5.91965 34.2001 5.06719 33.3477 5.06719 32.3001C5.06719 31.4756 5.59855 30.7789 6.33385 30.5167V29.0164C5.59855 28.7542 5.06719 28.0575 5.06719 27.2329C5.06719 26.4083 5.59855 25.7117 6.33385 25.4495V24.9618L1.45275 20.0808C1.33369 19.9624 1.26719 19.8015 1.26719 19.6331V18.8832C0.531888 18.621 0.000520706 17.9243 0.000520706 17.0998C0.000520706 16.0522 0.852987 15.1998 1.90052 15.1998ZM5.70052 8.23324C6.04949 8.23324 6.33385 7.94951 6.33385 7.59992C6.33385 7.25033 6.04949 6.9666 5.70052 6.9666C5.35155 6.9666 5.06719 7.25033 5.06719 7.59992C5.06719 7.94951 5.35155 8.23324 5.70052 8.23324ZM6.96719 32.9328C7.31615 32.9328 7.60052 32.6491 7.60052 32.2995C7.60052 31.9499 7.31615 31.6662 6.96719 31.6662C6.61822 31.6662 6.33385 31.9499 6.33385 32.2995C6.33385 32.6491 6.61822 32.9328 6.96719 32.9328ZM6.96719 27.8662C7.31615 27.8662 7.60052 27.5825 7.60052 27.2329C7.60052 26.8833 7.31615 26.5996 6.96719 26.5996C6.61822 26.5996 6.33385 26.8833 6.33385 27.2329C6.33385 27.5825 6.61822 27.8662 6.96719 27.8662ZM1.90052 17.7331C2.24949 17.7331 2.53385 17.4494 2.53385 17.0998C2.53385 16.7502 2.24949 16.4664 1.90052 16.4664C1.55155 16.4664 1.26719 16.7502 1.26719 17.0998C1.26719 17.4494 1.55155 17.7331 1.90052 17.7331Z" fill="#00B2FF"/>
</svg>

<svg width="38" height="38" fill="none" xmlns="http://www.w3.org/2000/svg"><path d="M24.433 10.133c.825 0 1.522.532 1.784 1.267h6.566a1.897 1.897 0 011.784-1.267c1.047 0 1.9.853 1.9 1.9 0 1.048-.853 1.9-1.9 1.9a1.897 1.897 0 01-1.784-1.267h-6.567a1.897 1.897 0 01-1.783 1.267c-1.048 0-1.9-.852-1.9-1.9 0-1.047.853-1.9 1.9-1.9zm10.134 2.534a.634.634 0 10-.002-1.268.634.634 0 00.002 1.268zm-10.134 0a.634.634 0 10-.001-1.269.634.634 0 00.002 1.268z" fill="#00B2FF"/><path d="M18.367 14.05v-3.917a.63.63 0 01.185-.448l2.534-2.533a.632.632 0 01.447-.185h2.017A1.897 1.897 0 0125.333 5.7c1.048 0 1.9.852 1.9 1.9 0 1.047-.852 1.9-1.9 1.9a1.897 1.897 0 01-1.783-1.267h-1.754l-2.163 2.162v3.655a1.897 1.897 0 011.267 1.783c0 1.048-.852 1.9-1.9 1.9-1.047 0-1.9-.852-1.9-1.9 0-.825.531-1.521 1.267-1.783zm6.966-5.817a.634.634 0 100-1.268.634.634 0 000 1.268zM19 16.466a.634.634 0 100-1.268.634.634 0 000 1.268zm-12.033 0c.292 0 .566.072.814.191l1.086-1.086V9.5a.63.63 0 01.185-.448l6.339-6.338A1.87 1.87 0 0115.2 1.9c0-1.048.852-1.9 1.9-1.9 1.047 0 1.9.852 1.9 1.9 0 1.047-.852 1.9-1.9 1.9-.293 0-.566-.072-.814-.19l-6.153 6.152v6.071a.63.63 0 01-.185.448l-1.272 1.271c.12.248.19.522.19.814 0 1.048-.852 1.9-1.9 1.9-1.047 0-1.9-.852-1.9-1.9 0-1.047.853-1.9 1.9-1.9zM17.1 2.533a.634.634 0 10-.001-1.268.634.634 0 00.001 1.268zM6.967 19a.634.634 0 10-.002-1.268A.634.634 0 006.967 19zm-5.7-10.017v-2.65a.63.63 0 01.186-.448l4.433-4.433a.632.632 0 01.448-.185h3.283A1.897 1.897 0 0111.4 0c1.048 0 1.9.852 1.9 1.9 0 1.047-.852 1.9-1.9 1.9a1.897 1.897 0 01-1.783-1.267H6.596L2.534 6.595v2.388A1.897 1.897 0 013.8 10.767c0 1.047-.852 1.9-1.9 1.9-1.047 0-1.9-.853-1.9-1.9 0-.825.532-1.522 1.267-1.784zM11.4 2.533a.634.634 0 100-1.268.634.634 0 000 1.268zM1.9 11.4a.634.634 0 100-1.268.634.634 0 000 1.268zm8.233 22.917v-9.1a1.898 1.898 0 01-1.266-1.784c0-1.048.852-1.9 1.9-1.9.825 0 1.521.531 1.783 1.267h6.567a1.897 1.897 0 011.783-1.267c.825 0 1.522.531 1.784 1.267h3.654l2.353-2.353a1.87 1.87 0 01-.19-.814c0-1.047.852-1.9 1.9-1.9 1.047 0 1.9.852 1.9 1.9 0 1.047-.853 1.9-1.9 1.9a1.88 1.88 0 01-.814-.19l-2.539 2.538a.632.632 0 01-.448.185h-3.916a1.898 1.898 0 01-1.784 1.267 1.898 1.898 0 01-1.783-1.267H12.55a1.898 1.898 0 01-1.15 1.15v9.1a1.897 1.897 0 011.266 1.784c0 1.047-.852 1.9-1.9 1.9-1.047 0-1.9-.852-1.9-1.9 0-.825.532-1.521 1.267-1.783zM30.4 20.267a.634.634 0 100-1.268.634.634 0 000 1.267zm-9.5 3.8a.634.634 0 10-.001-1.269.634.634 0 00.001 1.268zM10.767 36.732a.634.634 0 10-.001-1.268.634.634 0 00.001 1.268zm0-12.667a.634.634 0 10-.001-1.268.634.634 0 00.001 1.268z" fill="#00B2FF"/><path d="M13.3 12.783v-2.016a.63.63 0 01.185-.448l7.605-7.605a1.868 1.868 0 01-.19-.814c0-1.048.852-1.9 1.9-1.9.824 0 1.521.531 1.783 1.267h2.65c.35 0 .633.283.633.633v1.638L30.22 5.89c.248-.12.521-.191.814-.191 1.048 0 1.9.852 1.9 1.9 0 1.047-.852 1.9-1.9 1.9-1.047 0-1.9-.853-1.9-1.9 0-.293.072-.566.19-.814l-2.538-2.538A.63.63 0 0126.6 3.8V2.533h-2.017A1.897 1.897 0 0122.8 3.8a1.87 1.87 0 01-.814-.19l-7.42 7.419v1.754a1.897 1.897 0 011.267 1.783c0 1.048-.852 1.9-1.9 1.9-1.047 0-1.9-.852-1.9-1.9 0-.824.532-1.52 1.267-1.783zm17.733-4.55a.634.634 0 10-.001-1.268.634.634 0 00.001 1.268zm-8.233-5.7a.634.634 0 10-.002-1.268.634.634 0 00.002 1.268zM13.933 15.2a.634.634 0 10-.001-1.268.634.634 0 00.001 1.268z" fill="#00B2FF"/><path d="M15.2 17.733c.825 0 1.521.531 1.784 1.267h7.454l3.614-3.615a.632.632 0 01.448-.185h6.705l1.528-1.53V8.496L31.847 3.61a1.87 1.87 0 01-.814.19c-1.047 0-1.9-.852-1.9-1.899 0-1.048.853-1.9 1.9-1.9 1.048 0 1.9.852 1.9 1.9 0 .293-.071.566-.19.814l5.071 5.071a.63.63 0 01.186.448v5.7a.63.63 0 01-.186.448l-1.9 1.9a.631.631 0 01-.447.185h-6.705l-3.614 3.615a.632.632 0 01-.448.185h-7.716a1.897 1.897 0 01-1.784 1.267c-1.047 0-1.9-.853-1.9-1.9s.852-1.9 1.9-1.9zM31.033 1.267a.634.634 0 10.002 1.268.634.634 0 00-.002-1.268zm-15.833 19a.634.634 0 10-.001-1.268.634.634 0 00.001 1.267zM1.9 15.2c.293 0 .567.071.814.19l2.353-2.352V9.383A1.897 1.897 0 013.801 7.6c0-1.048.852-1.9 1.9-1.9 1.047 0 1.9.852 1.9 1.9 0 .825-.532 1.521-1.267 1.783V13.3a.63.63 0 01-.186.448L3.61 16.286c.119.248.19.521.19.814 0 .824-.53 1.521-1.266 1.783v.488l4.881 4.88a.63.63 0 01.186.449v.75a1.897 1.897 0 011.266 1.783c0 .825-.531 1.521-1.266 1.783v1.5A1.897 1.897 0 018.867 32.3c0 1.048-.852 1.9-1.9 1.9-1.047 0-1.9-.852-1.9-1.9 0-.824.532-1.521 1.267-1.783v-1.5a1.897 1.897 0 01-1.267-1.784 1.9 1.9 0 011.267-1.784v-.487L1.453 20.08a.63.63 0 01-.186-.448v-.75A1.897 1.897 0 01.001 17.1c0-1.048.852-1.9 1.9-1.9zm3.8-6.967a.634.634 0 100-1.268.634.634 0 000 1.268zm1.267 24.7a.634.634 0 10-.001-1.268.634.634 0 00.001 1.268zm0-5.067a.634.634 0 10-.001-1.268.634.634 0 00.001 1.268zM1.901 17.733a.634.634 0 10-.002-1.268.634.634 0 00.002 1.268z" fill="#00B2FF"/></svg>
